X: 30
T:Liscarroll Hornpipe (#334), The
M:4/4
L:1/8
S:Jerry O'Reilly, San Francisco
R:Hornpipe
K:G
dc|BGBd gabg|agge dedc|BGBd cAFG|AG (3FED FAdc|
BGBd gabg|agge dedc|BGBd cAFA|G2 GG G2:|
|:ga|bagf gbag|fed^c defg|a2 af gbag|fge^c d2 ef|
gbaf gage|dedB cedc|BGBd cAFA|G2 GG G2:||

